icons/folder-stack.svg

<svg xmlns="http://www.w3.org/2000/svg" viewBox="0 0 16 16"><path id="folder" fill="#ffa726" d="m6.922 3.768-.644-.536A1 1 0 0 0 5.638 3H2a1 1 0 0 0-1 1v8a1 1 0 0 0 1 1h12a1 1 0 0 0 1-1V5a1 1 0 0 0-1-1H7.562a1 1 0 0 1-.64-.232"/><path id="motive" fill="#ffe0b2" d="M6.5 6a.5.5 0 0 0-.5.5v8a.5.5 0 0 0 .5.5h8a.5.5 0 0 0 .5-.5V14h1v-1h-1v-2h1v-1h-1V8h1V7h-1v-.5a.5.5 0 0 0-.5-.5zM7 7h7v7H7zm1 1v2h2V8zm3 0v1h2V8zm0 2v3h2v-3zm-3 1v2h2v-2z"/></svg>

<svg xmlns="http://www.w3.org/2000/svg" viewBox="0 0 16 16">
<path id="folder" fill="#ffa726" d="m6.922 3.768-.644-.536A1 1 0 0 0 5.638 3H2a1 1 0 0 0-1 1v8a1 1 0 0 0 1 1h12a1 1 0 0 0 1-1V5a1 1 0 0 0-1-1H7.562a1 1 0 0 1-.64-.232" />
<path id="motive" fill="#ffe0b2" d="M 6.5 6 A 0.5 0.5 0 0 0 6 6.5 L 6 14.5 A 0.5 0.5 0 0 0 6.5 15 L 14.5 15 A 0.5 0.5 0 0 0 15 14.5 L 15 14 L 16 14 L 16 13 L 15 13 L 15 11 L 16 11 L 16 10 L 15 10 L 15 8 L 16 8 L 16 7 L 15 7 L 15 6.5 A 0.5 0.5 0 0 0 14.5 6 L 6.5 6 z M 7 7 L 14 7 L 14 14 L 7 14 L 7 7 z M 8 8 L 8 10 L 10 10 L 10 8 L 8 8 z M 11 8 L 11 9 L 13 9 L 13 8 L 11 8 z M 11 10 L 11 13 L 13 13 L 13 10 L 11 10 z M 8 11 L 8 13 L 10 13 L 10 11 L 8 11 z " />
</svg>
